X:13
T:Blooming Meadows
Z: id:dc-jig-10
M:6/8
L:1/8
K:G Major
E|D2G G2A|BdB cAG|F2D DED|F2G AFD|!
D2G G2A|BAG Bcd|fed cAF|AGF G2:|!
d|g2d def|g2a bag|f2d ded|f2g agf|!
[1 g2d def|g2a bag|fed cAF|AGF G2d:|!
[2 g2e f2d|edc Bcd|fed cAF|AGF G2|]!
A|B2d c2A|B2d cAG|F2D DED|F2G AFD|!
[1 B2d c2A|BAG Bcd|fed cAF|AGF G2A:|!
[2 BAG cBA|BAG Bcd|fed cAF|AGF G2|]!

